X:24
T:Haste To The Wedding
M:6/8
L:1/8
R:Jig
Z:Steve Mansfield
K:D
A2 A A2 f | ede fed | A2 A A2 F | GFG EFG | ABA A2 f | ede fed | 
A2 A d2 e | fed d3 :: fga agf | gab bag | fga agf | 
gfg efg | a3 f3 | ede fed | ABA d2 e | fed d3 :|

